images/svg/icons/skills/markdown/bibtex-icon.svg

<?xml version="1.0" encoding="UTF-8" standalone="no"?>
<svg
   width="500cm"
   height="500cm"
   version="1.0"
   id="svg1"
   sodipodi:docname="bibtex-icon.svg"
   inkscape:version="1.3 (0e150ed6c4, 2023-07-21)"
   xmlns:inkscape="http://www.inkscape.org/namespaces/inkscape"
   xmlns:sodipodi="http://sodipodi.sourceforge.net/DTD/sodipodi-0.dtd"
   xmlns="http://www.w3.org/2000/svg"
   xmlns:svg="http://www.w3.org/2000/svg">
  <defs
     id="defs1" />
  <sodipodi:namedview
     id="namedview1"
     pagecolor="#ffffff"
     bordercolor="#000000"
     borderopacity="0.25"
     inkscape:showpageshadow="2"
     inkscape:pageopacity="0.0"
     inkscape:pagecheckerboard="0"
     inkscape:deskcolor="#d1d1d1"
     inkscape:document-units="cm"
     inkscape:zoom="0.023113248"
     inkscape:cx="7355.0893"
     inkscape:cy="8804.4746"
     inkscape:window-width="958"
     inkscape:window-height="981"
     inkscape:window-x="-8"
     inkscape:window-y="0"
     inkscape:window-maximized="0"
     inkscape:current-layer="g12" />
  <g
     id="g12"
     transform="matrix(250.28989,0,0,250.28989,1.153028e-4,6396.4085)"
     style="stroke-width:0.0561064">
    <path
       style="fill:#000000;stroke:#000000;stroke-width:0.377515;stroke-dasharray:none;stroke-opacity:1"
       d="M 0,0.00396729 V 0.60199 c 1.73,0 2.007,0 2.007,1.117 V 15.176 c 0,1.117 -0.27301,1.117 -2.007,1.117 v 0.598 h 8.496 c 3.16,0 5.211,-2.25 5.211,-4.5 0,-2.227 -2.028,-4.12904 -4.668,-4.305 C 11.406,7.61798 13.062,6.03601 13.062,4.15698 13.062,2.10602 11.039,0 7.851,0 Z M 3.60899,7.90698 v -6.328 C 3.60899,0.734985 3.656,0.609985 4.64,0.609985 h 3.145 c 2.429,0 3.511,1.984005 3.511,3.523015 0,1.88702 -1.50001,3.77398 -4.152,3.77398 z M 4.64,16.305 c -0.98,0 -1.027,-0.125 -1.027,-0.969 V 8.30896 h 4.54299 c 2.52701,0 3.75801,2.26604 3.75801,4.08604 0,1.816 -1.399,3.91 -4.07501,3.91"
       id="path14" />
    <path
       style="fill:#000000;stroke:#000000;stroke-width:0.377515;stroke-dasharray:none;stroke-opacity:1"
       d="m 18.41,5.99701 c 0,-1.06305 0.125,-1.18805 1.918,-1.18805 V 4.211 c -0.84,0.02399 -2.129,0.07501 -2.774,0.07501 -0.644,0 -1.933,-0.047 -2.773,-0.07501 v 0.59796 c 1.711,0 1.832,0.125 1.832,1.18805 V 15.114 c 0,1.062 -0.117,1.187 -1.832,1.187 v 0.598 c 0.84,-0.024 2.129,-0.07 2.773,-0.07 0.645,0 1.93,0.046 2.774,0.07 v -0.598 c -1.793,0 -1.918,-0.121 -1.918,-1.187"
       id="path16" />
    <path
       style="fill:#000000;stroke:#000000;stroke-width:0.377515;stroke-dasharray:none;stroke-opacity:1"
       d="m 21.75,4.20398 v 0.59698 c 1.636,0 1.757,0.14905 1.757,1.16401 V 15.133 c 0,1.016 -0.121,1.164 -1.757,1.164 v 0.598 h 7.476 c 2.746,0 4.481,-1.68 4.481,-3.406 0,-1.606 -1.586,-2.965 -3.739,-3.235 1.758,-0.36704 3.168,-1.48001 3.168,-2.91403 0,-1.55396 -1.73,-3.13599 -4.429,-3.13599 z M 25.109,10.004 V 5.86798 c 0,-0.98498 0.125,-1.05902 1,-1.05902 h 2.402 c 2.278,0 2.653,1.92206 2.653,2.51202 0,0.88599 -0.649,2.68302 -3.254,2.68302 z m 0,0.5 h 3.719 c 2.105,0 2.777,1.907 2.777,2.961 0,1.129 -0.816,2.836 -3.074,2.836 h -2.43 c -0.867,0 -0.988,-0.074 -0.988,-1.078"
       id="path18" />
    <path
       style="fill:#000000;stroke:#000000;stroke-width:0.377515;stroke-opacity:1;stroke-dasharray:none"
       d="m 48.628,0.0469971 h -14.3 L 33.91,5.52399 h 0.445 c 0.32,-4.10199 0.672,-4.820011 4.512,-4.820011 0.445,0 1.168,0 1.367,0 0.473,0.074036 0.473,0.375001 0.473,0.945011 V 15.129 c 0,0.895 -0.075,1.168 -2.161,1.168 h -0.703 v 0.598 c 1.188,-0.023 2.426,-0.047 3.641,-0.047 1.211,0 2.453,0.024 3.64,0.047 v -0.598 h -0.691 c -2.055,0 -2.129,-0.273 -2.129,-1.168 V 1.64899 c 0,-0.547 0,-0.843997 0.446,-0.945011 0.195,0 0.914,0 1.359,0 3.789,0 4.16,0.713991 4.48,4.820011 h 0.446"
       id="path20" />
    <path
       style="fill:#000000;stroke:#000000;stroke-width:0.377515;stroke-dasharray:none;stroke-opacity:1"
       d="m 60.957,18.133 h -0.446 c -0.543,3.672 -0.863,5.668 -5.219,5.668 h -3.437 c -0.988,0 -1.035,-0.125 -1.035,-0.976 v -6.922 h 2.336 c 2.336,0 2.558,0.855 2.558,2.945 h 0.399 v -6.441 h -0.399 c 0,2.054 -0.222,2.894 -2.558,2.894 H 50.82 V 9.164 c 0,-0.83502 0.047,-0.96002 1.035,-0.96002 h 3.387 c 3.832,0 4.277,1.52301 4.625,4.79602 h 0.445 L 59.718,7.52399 H 47.179 v 0.67999 c 1.754,0 2.035,0 2.035,1.11304 V 22.68 c 0,1.113 -0.277,1.113 -2.035,1.113 v 0.598 h 12.887"
       id="path22" />
    <path
       style="fill:#000000;stroke:#000000;stroke-width:0.377515;stroke-dasharray:none;stroke-opacity:1"
       d="m 67.73,7.52399 3.664,-5.297 C 71.761,1.70697 72.507,0.636963 74.539,0.609985 V 0.0119629 C 73.972,0.05896 73.031,0.05896 72.437,0.05896 c -0.816,0 -1.832,0 -2.449,-0.0469971 V 0.609985 c 0.793,0.073975 0.988,0.570005 0.988,0.968995 0,0.29602 -0.121,0.49603 -0.297,0.742 L 67.41,7.06299 63.746,1.70001 C 63.574,1.42999 63.55,1.35199 63.55,1.27802 c 0,-0.22303 0.27,-0.645024 1.09,-0.668035 V 0.0119629 C 63.847,0.05896 62.636,0.05896 61.82,0.05896 c -0.641,0 -1.879,0 -2.477,-0.0469971 V 0.609985 c 1.36,0 1.805,0.051026 2.352,0.820005 l 4.777,7.01599 -4.308,6.29302 c -1.063,1.539 -2.672,1.566 -3.145,1.566 v 0.598 c 0.566,-0.047 1.508,-0.047 2.102,-0.047 0.668,0 1.832,0 2.449,0.047 v -0.598 c -0.766,-0.074 -0.988,-0.57 -0.988,-0.969 0,-0.32 0.121,-0.496 0.246,-0.672 l 3.961,-5.781 4.308,6.332 c 0.195,0.274 0.195,0.348 0.195,0.422 0,0.195 -0.222,0.621 -1.089,0.672 v 0.598 c 0.793,-0.047 2.004,-0.047 2.82,-0.047 0.641,0 1.879,0 2.48,0.047 v -0.598 c -1.586,0 -1.836,-0.121 -2.328,-0.82"
       id="path24" />
  </g>
</svg>

<?xml version="1.0" encoding="UTF-8" standalone="no"?>
<svg xmlns="http://www.w3.org/2000/svg" width="29.999998cm" height="274.35001pt" version="1.0">
  <g id="g12" transform="matrix(14.04287,0,0,14.04287,0,9.131875e-2)">
    <path style="fill:#000000;stroke:none" d="M 0,0.00396729 L 0,0.60199 C 1.73,0.60199 2.007,0.60199 2.007,1.71899 L 2.007,15.176 C 2.007,16.293 1.73399,16.293 0,16.293 L 0,16.891 L 8.496,16.891 C 11.656,16.891 13.707,14.641 13.707,12.391 C 13.707,10.164 11.679,8.26196 9.039,8.086 C 11.406,7.61798 13.062,6.03601 13.062,4.15698 C 13.062,2.10602 11.039,0 7.851,0 L 0,0.00396729 z M 3.60899,7.90698 L 3.60899,1.57898 C 3.60899,0.734985 3.656,0.609985 4.64,0.609985 L 7.785,0.609985 C 10.214,0.609985 11.296,2.59399 11.296,4.133 C 11.296,6.02002 9.79599,7.90698 7.144,7.90698 L 3.60899,7.90698 z M 4.64,16.305 C 3.66,16.305 3.613,16.18 3.613,15.336 L 3.613,8.30896 L 8.15599,8.30896 C 10.683,8.30896 11.914,10.575 11.914,12.395 C 11.914,14.211 10.515,16.305 7.83899,16.305" id="path14"/>
    <path style="fill:#000000;stroke:none" d="M 18.41,5.99701 C 18.41,4.93396 18.535,4.80896 20.328,4.80896 L 20.328,4.211 C 19.488,4.23499 18.199,4.28601 17.554,4.28601 C 16.91,4.28601 15.621,4.23901 14.781,4.211 L 14.781,4.80896 C 16.492,4.80896 16.613,4.93396 16.613,5.99701 L 16.613,15.114 C 16.613,16.176 16.496,16.301 14.781,16.301 L 14.781,16.899 C 15.621,16.875 16.91,16.829 17.554,16.829 C 18.199,16.829 19.484,16.875 20.328,16.899 L 20.328,16.301 C 18.535,16.301 18.41,16.18 18.41,15.114" id="path16"/>
    <path style="fill:#000000;stroke:none" d="M 21.75,4.20398 L 21.75,4.80096 C 23.386,4.80096 23.507,4.95001 23.507,5.96497 L 23.507,15.133 C 23.507,16.149 23.386,16.297 21.75,16.297 L 21.75,16.895 L 29.226,16.895 C 31.972,16.895 33.707,15.215 33.707,13.489 C 33.707,11.883 32.121,10.524 29.968,10.254 C 31.726,9.88696 33.136,8.77399 33.136,7.33997 C 33.136,5.78601 31.406,4.20398 28.707,4.20398 L 21.75,4.20398 z M 25.109,10.004 L 25.109,5.86798 C 25.109,4.883 25.234,4.80896 26.109,4.80896 L 28.511,4.80896 C 30.789,4.80896 31.164,6.73102 31.164,7.32098 C 31.164,8.20697 30.515,10.004 27.91,10.004 L 25.109,10.004 z M 25.109,10.504 L 28.828,10.504 C 30.933,10.504 31.605,12.411 31.605,13.465 C 31.605,14.594 30.789,16.301 28.531,16.301 L 26.101,16.301 C 25.234,16.301 25.113,16.227 25.113,15.223" id="path18"/>
    <path style="fill:#000000;stroke:none" d="M 48.628,0.0469971 L 34.328,0.0469971 L 33.91,5.52399 L 34.355,5.52399 C 34.675,1.422 35.027,0.703979 38.867,0.703979 C 39.312,0.703979 40.035,0.703979 40.234,0.703979 C 40.707,0.778015 40.707,1.07898 40.707,1.64899 L 40.707,15.129 C 40.707,16.024 40.632,16.297 38.546,16.297 L 37.843,16.297 L 37.843,16.895 C 39.031,16.872 40.269,16.848 41.484,16.848 C 42.695,16.848 43.937,16.872 45.124,16.895 L 45.124,16.297 L 44.433,16.297 C 42.378,16.297 42.304,16.024 42.304,15.129 L 42.304,1.64899 C 42.304,1.10199 42.304,0.804993 42.75,0.703979 C 42.945,0.703979 43.664,0.703979 44.109,0.703979 C 47.898,0.703979 48.269,1.41797 48.589,5.52399 L 49.035,5.52399" id="path20"/>
    <path style="fill:#000000;stroke:none" d="M 60.957,18.133 L 60.511,18.133 C 59.968,21.805 59.648,23.801 55.292,23.801 L 51.855,23.801 C 50.867,23.801 50.82,23.676 50.82,22.825 L 50.82,15.903 L 53.156,15.903 C 55.492,15.903 55.714,16.758 55.714,18.848 L 56.113,18.848 L 56.113,12.407 L 55.714,12.407 C 55.714,14.461 55.492,15.301 53.156,15.301 L 50.82,15.301 L 50.82,9.164 C 50.82,8.32898 50.867,8.20398 51.855,8.20398 L 55.242,8.20398 C 59.074,8.20398 59.519,9.72699 59.867,13 L 60.312,13 L 59.718,7.52399 L 47.179,7.52399 L 47.179,8.20398 C 48.933,8.20398 49.214,8.20398 49.214,9.31702 L 49.214,22.68 C 49.214,23.793 48.937,23.793 47.179,23.793 L 47.179,24.391 L 60.066,24.391" id="path22"/>
    <path style="fill:#000000;stroke:none" d="M 67.73,7.52399 L 71.394,2.22699 C 71.761,1.70697 72.507,0.636963 74.539,0.609985 L 74.539,0.0119629 C 73.972,0.05896 73.031,0.05896 72.437,0.05896 C 71.621,0.05896 70.605,0.05896 69.988,0.0119629 L 69.988,0.609985 C 70.781,0.68396 70.976,1.17999 70.976,1.57898 C 70.976,1.875 70.855,2.07501 70.679,2.32098 L 67.41,7.06299 L 63.746,1.70001 C 63.574,1.42999 63.55,1.35199 63.55,1.27802 C 63.55,1.05499 63.82,0.632996 64.64,0.609985 L 64.64,0.0119629 C 63.847,0.05896 62.636,0.05896 61.82,0.05896 C 61.179,0.05896 59.941,0.05896 59.343,0.0119629 L 59.343,0.609985 C 60.703,0.609985 61.148,0.661011 61.695,1.42999 L 66.472,8.44598 L 62.164,14.739 C 61.101,16.278 59.492,16.305 59.019,16.305 L 59.019,16.903 C 59.585,16.856 60.527,16.856 61.121,16.856 C 61.789,16.856 62.953,16.856 63.57,16.903 L 63.57,16.305 C 62.804,16.231 62.582,15.735 62.582,15.336 C 62.582,15.016 62.703,14.84 62.828,14.664 L 66.789,8.883 L 71.097,15.215 C 71.292,15.489 71.292,15.563 71.292,15.637 C 71.292,15.832 71.07,16.258 70.203,16.309 L 70.203,16.907 C 70.996,16.86 72.207,16.86 73.023,16.86 C 73.664,16.86 74.902,16.86 75.503,16.907 L 75.503,16.309 C 73.917,16.309 73.667,16.188 73.175,15.489" id="path24"/>
  </g>
</svg>
